Adwaita++/actions/symbolic/twitter-home-symbolic.svg

<svg height="16" width="16" xmlns="http://www.w3.org/2000/svg">
  <path d="m8 .75-8 7.8105 1.5195 1.5445 1.1504-.9741.8301 5.8691h9l.83-5.8691 1.15.9741 1.52-1.5445zm0 6.25a3 3 0 0 1 3 3 3 3 0 0 1 -3 3 3 3 0 0 1 -3-3 3 3 0 0 1 3-3z" fill="#474747"/>
</svg>

<svg xmlns="http://www.w3.org/2000/svg" width="16" height="16" version="1.1">
 <path style="fill:#474747" d="M 8 0.75 L 0 8.5605 L 1.5195 10.105 L 2.6699 9.1309 L 3.5 15 L 12.5 15 L 13.33 9.1309 L 14.48 10.105 L 16 8.5605 L 8 0.75 z M 8 7 A 3 3 0 0 1 11 10 A 3 3 0 0 1 8 13 A 3 3 0 0 1 5 10 A 3 3 0 0 1 8 7 z"/>
</svg>
